!!!OTL: ACH EDLER GRAF VON LUETZELBURG
!!!ARE: Europa, Mitteleuropa, Deutschland
!!!SCT: B0124
!!!YEM: Copyright 1995, estate of Helmut Schaffrath.
**kern
*ICvox
*Ivox
*M6/8
*k[]
*C:
{8G
=1
4c
8c
8d
8c
8B
=2
4c
8A
4G}
{8d
=3
4e
8d
8c
8e
8d
=4
8G
8c
8B
4c}
{8e
=5
4f
8e
8d
8c
8d
=6
4e
8d
4c}
{8c
=7
8d
8e
8d
4c
8d
=8
4c
8B
4A}
{16d
16G
=9
4c
8B
8c
8d
8e
=10
8d
8c
8B
4A}
==
!!!AGN: Ballade, Romanze
!! modulierender Schluss
!!!ONB: ESAC (Essen Associative Code) Database: BOEHME
!!!AMT: compound duple
!!!AIN: vox
!!!EED: Helmut Schaffrath
!!!EEV: 1.0
*-
